modules/hawcons-filled/icons/icon-34-clipboard-remove.svg

<?xml version="1.0" encoding="UTF-8" standalone="no"?>
<svg width="32px" height="32px" viewBox="0 0 32 32" version="1.1" xmlns="http://www.w3.org/2000/svg" xmlns:xlink="http://www.w3.org/1999/xlink" xmlns:sketch="http://www.bohemiancoding.com/sketch/ns">
    <!-- Generator: Sketch 3.0.3 (7891) - http://www.bohemiancoding.com/sketch -->
    <title>icon 34 clipboard remove</title>
    <desc>Created with Sketch.</desc>
    <defs></defs>
    <g id="Page-1" stroke="none" stroke-width="1" fill="none" fill-rule="evenodd" sketch:type="MSPage">
        <g id="icon-34-clipboard-remove" sketch:type="MSArtboardGroup" fill="#929292">
            <path d="M24,20.4981633 L24,7.00359486 C24,5.89703997 23.1090746,5 22.0025781,5 L20.9999942,5 L20.9999942,5 C20.9999981,5.00162671 21,5.00325388 21,5.0048815 L21,5.9951185 C21,7.1061002 20.1033337,8 18.9972399,8 L10.0027601,8 C8.89354265,8 8,7.10238398 8,5.9951185 L8,5.0048815 C8,5.00325387 8.00000192,5.0016267 8.00000577,5 L6.99742191,5 C5.89427625,5 5,5.88976324 5,7.00359486 L5,27.9964051 C5,29.10296 5.89092539,30 6.99742191,30 L16.0218178,30 C15.3749964,28.9896995 15,27.7886423 15,26.5 C15,22.9101489 17.9101489,20 21.5,20 C22.3859009,20 23.2304079,20.1772281 24,20.4981633 L24,20.4981633 Z M12,4 L12,2.99791312 C12,1.89826062 12.897616,1 14.0048815,1 L14.9951185,1 C16.1061002,1 17,1.89449617 17,2.99791312 L17,4 L19.0044225,4 C19.555163,4 20,4.44724809 20,4.99895656 L20,6.00104344 C20,6.55733967 19.5542648,7 19.0044225,7 L9.9955775,7 C9.44483697,7 9,6.55275191 9,6.00104344 L9,4.99895656 C9,4.44266033 9.44573523,4 9.9955775,4 L12,4 L12,4 Z M14.5,4 C14.7761424,4 15,3.77614239 15,3.5 C15,3.22385761 14.7761424,3 14.5,3 C14.2238576,3 14,3.22385761 14,3.5 C14,3.77614239 14.2238576,4 14.5,4 L14.5,4 Z M21.5,32 C24.5375663,32 27,29.5375663 27,26.5 C27,23.4624337 24.5375663,21 21.5,21 C18.4624337,21 16,23.4624337 16,26.5 C16,29.5375663 18.4624337,32 21.5,32 L21.5,32 Z M18,26 L18,27 L25,27 L25,26 L18,26 L18,26 Z" id="clipboard-remove" sketch:type="MSShapeGroup"></path>
        </g>
    </g>
</svg>

<svg width="32" height="32" xmlns="http://www.w3.org/2000/svg"><path d="M24 20.498V7.004C24 5.897 23.11 5 22.003 5H21v.995A2.001 2.001 0 0 1 18.997 8h-8.994A2.002 2.002 0 0 1 8 5.995v-.99V5H6.997C5.894 5 5 5.89 5 7.004v20.992C5 29.103 5.89 30 6.997 30h9.025A6.5 6.5 0 0 1 24 20.498zM12 4V2.998C12 1.898 12.898 1 14.005 1h.99C16.106 1 17 1.894 17 2.998V4h2.004c.551 0 .996.447.996.999v1.002a.994.994 0 0 1-.996.999H9.996A.997.997 0 0 1 9 6.001V4.999C9 4.443 9.446 4 9.996 4H12zm2.5 0a.5.5 0 1 0 0-1 .5.5 0 0 0 0 1zm7 28a5.5 5.5 0 1 0 0-11 5.5 5.5 0 0 0 0 11zM18 26v1h7v-1h-7z" fill="#929292" fill-rule="evenodd"/></svg>
